files/2/48x48/places/folder-templates.svg

<?xml version="1.0" encoding="UTF-8" standalone="no"?>
<svg
   xmlns:dc="http://purl.org/dc/elements/1.1/"
   xmlns:cc="http://creativecommons.org/ns#"
   xmlns:rdf="http://www.w3.org/1999/02/22-rdf-syntax-ns#"
   xmlns:svg="http://www.w3.org/2000/svg"
   xmlns="http://www.w3.org/2000/svg"
   xmlns:sodipodi="http://sodipodi.sourceforge.net/DTD/sodipodi-0.dtd"
   xmlns:inkscape="http://www.inkscape.org/namespaces/inkscape"
   width="48"
   viewBox="0 0 48 48"
   height="48"
   id="svg3091"
   version="1.1"
   inkscape:version="0.48.5 r10040"
   sodipodi:docname="folder-templates.svg">
  <metadata
     id="metadata3109">
    <rdf:RDF>
      <cc:Work
         rdf:about="">
        <dc:format>image/svg+xml</dc:format>
        <dc:type
           rdf:resource="http://purl.org/dc/dcmitype/StillImage" />
      </cc:Work>
    </rdf:RDF>
  </metadata>
  <defs
     id="defs3107" />
  <sodipodi:namedview
     pagecolor="#ffffff"
     bordercolor="#666666"
     borderopacity="1"
     objecttolerance="10"
     gridtolerance="10"
     guidetolerance="10"
     inkscape:pageopacity="0"
     inkscape:pageshadow="2"
     inkscape:window-width="672"
     inkscape:window-height="480"
     id="namedview3105"
     showgrid="false"
     inkscape:zoom="4.9166667"
     inkscape:cx="34.169492"
     inkscape:cy="24.40678"
     inkscape:window-x="0"
     inkscape:window-y="0"
     inkscape:window-maximized="0"
     inkscape:current-layer="svg3091" />
  <path
     style="font-size:medium;font-style:normal;font-variant:normal;font-weight:normal;font-stretch:normal;text-indent:0;text-align:start;text-decoration:none;line-height:normal;letter-spacing:normal;word-spacing:normal;text-transform:none;direction:ltr;block-progression:tb;writing-mode:lr-tb;text-anchor:start;baseline-shift:baseline;color:#000000;fill:#e9b080;fill-opacity:1;fill-rule:nonzero;stroke:none;stroke-width:1;marker:none;visibility:visible;display:inline;overflow:visible;enable-background:accumulate;font-family:Sans;-inkscape-font-specification:Sans"
     d="m 6.000023,6.0000004 c -1,0 -2,1 -2,2 l 0,1.9999996 -1,0 c -1,0 -2.00556897,0.949207 -2,2 l 0,28 c 1.28e-4,1.120734 1.037763,1.9999 2.1875,2 l 41.625,0 c 1.1875,0 2.1875,-1 2.1875,-2 l 0,-25 c 0,-1 -1,-2 -2,-2 l -2,0 0,-4.9999996 c 0,-1 -1,-2 -2,-2 z"
     id="path3770"
     inkscape:connector-curvature="0"
     sodipodi:nodetypes="sscsccccccccsss" />
  <path
     style="line-height:normal;color:#000000;fill:#000000;fill-opacity:0.32156864"
     d="m 17,20 c 0,0 -1,0.038 -1,1 l 0,2 2,0 0,-1 1,0 0,-2 -1.90625,0 L 17,20 z m 3,0 0,2 2,0 0,-2 -2,0 z m 3,0 0,2 2,0 0,-2 -2,0 z m 3,0 0,2 2,0 0,-2 -2,0 z m 3,0 0,2 1,0 0,1 2,0 0,-2 c 0,-1 -1,-1 -1,-1 l -2,0 z m -13,4 0,2 2,0 0,-2 -2,0 z m 14,0 0,2 2,0 0,-2 -2,0 z m -14,3 0,2 2,0 0,-2 -2,0 z m 14,0 0,2 2,0 0,-2 -2,0 z m -14,3 0,2 2,0 0,-2 -2,0 z m 14,0 0,2 2,0 0,-2 -2,0 z m -14,3 0,2 c 0,1 1,1 1,1 l 2,0 0,-2 -1,0 0,-1 -2,0 z m 14,0 0,1 -1,0 0,2 2,0 c 0,0 1,0 1,-1 l 0,-2 -2,0 z m -10,1 0,2 2,0 0,-2 -2,0 z m 3,0 0,2 2,0 0,-2 -2,0 z m 3,0 0,2 2,0 0,-2 -2,0 z"
     id="path3103"
     inkscape:connector-curvature="0" />
  <path
     inkscape:connector-curvature="0"
     style="font-size:medium;font-style:normal;font-variant:normal;font-weight:normal;font-stretch:normal;text-indent:0;text-align:start;text-decoration:none;line-height:normal;letter-spacing:normal;word-spacing:normal;text-transform:none;direction:ltr;block-progression:tb;writing-mode:lr-tb;text-anchor:start;baseline-shift:baseline;color:#000000;fill:#000000;fill-opacity:0.32156863;fill-rule:nonzero;stroke:none;stroke-width:1;marker:none;visibility:visible;display:inline;overflow:visible;enable-background:accumulate;font-family:Sans;-inkscape-font-specification:Sans"
     d="m 6.000023,6.0000004 c -1,0 -2,1 -2,2 l 0,1.9999996 -1,0 c -1,0 -2.00556897,0.949207 -2,2 l 0,28 c 1.28e-4,1.120734 1.037763,1.9999 2.1875,2 l 41.625,0 c 1.1875,0 2.1875,-1 2.1875,-2 l 0,-25 c 0,-1 -1,-2 -2,-2 l -2,0 0,-4.9999996 c 0,-1 -1,-2 -2,-2 l -35,0 z m -3,4.9999996 24,0 c 0.507314,0 1,0.494167 1,1 l 0,2 17,0 c 0.540858,0 1,0.471809 1,1 l 0,25 c 0,0.553755 -0.452115,1 -1,1 l -42,0 c -0.512726,0 -1,-0.446246 -1,-1 l 0,-28 c 0,-0.543318 0.479042,-1 1,-1 z"
     id="path3779" />
</svg>

<?xml version="1.0" encoding="UTF-8" standalone="no"?>
<svg
   xmlns:dc="http://purl.org/dc/elements/1.1/"
   xmlns:cc="http://creativecommons.org/ns#"
   xmlns:rdf="http://www.w3.org/1999/02/22-rdf-syntax-ns#"
   xmlns:svg="http://www.w3.org/2000/svg"
   xmlns="http://www.w3.org/2000/svg"
   xmlns:sodipodi="http://sodipodi.sourceforge.net/DTD/sodipodi-0.dtd"
   xmlns:inkscape="http://www.inkscape.org/namespaces/inkscape"
   width="48"
   viewBox="0 0 48 48"
   height="48"
   id="svg3091"
   version="1.1"
   inkscape:version="0.48.5 r10040"
   sodipodi:docname="folder-templates.svg">
  <metadata
     id="metadata3109">
    <rdf:RDF>
      <cc:Work
         rdf:about="">
        <dc:format>image/svg+xml</dc:format>
        <dc:type
           rdf:resource="http://purl.org/dc/dcmitype/StillImage" />
      </cc:Work>
    </rdf:RDF>
  </metadata>
  <defs
     id="defs3107" />
  <sodipodi:namedview
     pagecolor="#ffffff"
     bordercolor="#666666"
     borderopacity="1"
     objecttolerance="10"
     gridtolerance="10"
     guidetolerance="10"
     inkscape:pageopacity="0"
     inkscape:pageshadow="2"
     inkscape:window-width="1280"
     inkscape:window-height="998"
     id="namedview3105"
     showgrid="false"
     inkscape:zoom="13.906433"
     inkscape:cx="22.327038"
     inkscape:cy="24.415548"
     inkscape:window-x="0"
     inkscape:window-y="0"
     inkscape:window-maximized="1"
     inkscape:current-layer="svg3091" />
  <path
     style="font-size:medium;font-style:normal;font-variant:normal;font-weight:normal;font-stretch:normal;text-indent:0;text-align:start;text-decoration:none;line-height:normal;letter-spacing:normal;word-spacing:normal;text-transform:none;direction:ltr;block-progression:tb;writing-mode:lr-tb;text-anchor:start;baseline-shift:baseline;color:#000000;fill:#e9b080;fill-opacity:1;fill-rule:nonzero;stroke:none;stroke-width:1;marker:none;visibility:visible;display:inline;overflow:visible;enable-background:accumulate;font-family:Sans;-inkscape-font-specification:Sans"
     d="m 6.000023,6.0000004 c -1,0 -2,1 -2,2 l 0,1.9999996 -1,0 c -1,0 -2.00556897,0.949207 -2,2 l 0,28 c 1.28e-4,1.120734 1.037763,1.9999 2.1875,2 l 41.625,0 c 1.1875,0 2.1875,-1 2.1875,-2 l 0,-25 c 0,-1 -1,-2 -2,-2 l -2,0 0,-4.9999996 c 0,-1 -1,-2 -2,-2 z"
     id="path3770"
     inkscape:connector-curvature="0"
     sodipodi:nodetypes="sscsccccccccsss" />
  <path
     inkscape:connector-curvature="0"
     style="font-size:medium;font-style:normal;font-variant:normal;font-weight:normal;font-stretch:normal;text-indent:0;text-align:start;text-decoration:none;line-height:normal;letter-spacing:normal;word-spacing:normal;text-transform:none;direction:ltr;block-progression:tb;writing-mode:lr-tb;text-anchor:start;baseline-shift:baseline;color:#000000;fill:#000000;fill-opacity:0.32156863;fill-rule:nonzero;stroke:none;stroke-width:1;marker:none;visibility:visible;display:inline;overflow:visible;enable-background:accumulate;font-family:Sans;-inkscape-font-specification:Sans"
     d="m 6.000023,6.0000004 c -1,0 -2,1 -2,2 l 0,1.9999996 -1,0 c -1,0 -2.00556897,0.949207 -2,2 l 0,28 c 1.28e-4,1.120734 1.037763,1.9999 2.1875,2 l 41.625,0 c 1.1875,0 2.1875,-1 2.1875,-2 l 0,-25 c 0,-1 -1,-2 -2,-2 l -2,0 0,-4.9999996 c 0,-1 -1,-2 -2,-2 l -35,0 z m -3,4.9999996 24,0 c 0.507314,0 1,0.494167 1,1 l 0,2 17,0 c 0.540858,0 1,0.471809 1,1 l 0,25 c 0,0.553755 -0.452115,1 -1,1 l -42,0 c -0.512726,0 -1,-0.446246 -1,-1 l 0,-28 c 0,-0.543318 0.479042,-1 1,-1 z"
     id="path3779" />
  <path
     style="line-height:normal;opacity:1;color:#000000;fill:#000000;fill-opacity:0.32156864000000002"
     d="M 17 20 C 17 20 16 20.038 16 21 L 16 23 L 18 23 L 18 22 L 19 22 L 19 20 L 17.09375 20 L 17 20 z M 20 20 L 20 22 L 22 22 L 22 20 L 20 20 z M 23 20 L 23 22 L 25 22 L 25 20 L 23 20 z M 26 20 L 26 22 L 28 22 L 28 20 L 26 20 z M 29 20 L 29 22 L 30 22 L 30 23 L 32 23 L 32 21 C 32 20 31 20 31 20 L 29 20 z M 16 24 L 16 26 L 18 26 L 18 24 L 16 24 z M 30 24 L 30 26 L 32 26 L 32 24 L 30 24 z M 16 27 L 16 29 L 18 29 L 18 27 L 16 27 z M 30 27 L 30 29 L 32 29 L 32 27 L 30 27 z M 16 30 L 16 32 L 18 32 L 18 30 L 16 30 z M 30 30 L 30 32 L 32 32 L 32 30 L 30 30 z M 16 33 L 16 35 C 16 36 17 36 17 36 L 19 36 L 19 34 L 18 34 L 18 33 L 16 33 z M 30 33 L 30 34 L 29 34 L 29 36 L 31 36 C 31 36 32 36 32 35 L 32 33 L 30 33 z M 20 34 L 20 36 L 22 36 L 22 34 L 20 34 z M 23 34 L 23 36 L 25 36 L 25 34 L 23 34 z M 26 34 L 26 36 L 28 36 L 28 34 L 26 34 z "
     id="path4019" />
</svg>
